X:24
T:Sortez de l'amoureux empire. [FJ24]
% "corrected" version
S:Festin joyeux.  Music page 12.
Z:transcribed by Eric Conrad, 2021.
N:NB The meter is given simply as "2"
N:NB G is the first line of the staff (lines: GBdfa), so watch out!
N:NB MS has a four-dot repeat in the middle, with no marks at start or end.
N:NB The MS repeat mark is 4 vertical dots enclosed by bars on both sides.
N:NB The plus signs seem to indicate some kind of roll or trill.
N:NB In MS, music is keyed in D Dorian, but each B is flatted.
N:NB1 First note is D.  G is on line 1 in MS. Start of repeat is not in the MS. Assuming one note pickup here.
N:NB2 All B notes are marked accidentally flat in MS. Accidental moved to key signature here.
N:NB3 Short measure followed by a repeat mark (described above).
N:NB4 Sharp C - raised seventh. (Harmonic minor.)
N:NB5 Short measure with (as usual) no repeat indication.
N:NB6 added repeat mark and shortened this note from dotted half (MS) to quarter (here)
N:NB7 separated into first and second ending.  MS has |d2||.  Here: |1d2:|2d4|]
M:2/2
L:1/4
% Key signature, B is marked flat throughout, so Dmin (here) instead of D Dorian (MS)
% K:Dmin clef=treble1 % MS has G on line 1, so third line is D
K:Dmin % Since Bb always
"_NB1"zd |: f>f | ga "^+"ge | fd fg/a/ | "_NB2"b2 ba | "^+"g2 g/f/g |1 "_NB3"a2 :|2
a2- |: "_NB6"ae | fg/a/ de/f/ | "^+"e2 fg/a/ | "_NB2"ba bg | a/> (g/ f) za |
b>a "^+"g>f | ef g/f/e/d/ | "_NB4""^+"^c2 ze | a2 ee/f/ | (f2 "^+"e2) |1 "_NB5"d2 :|2 "_NB7"d4 |]

